X:465
T: ZAU DICH FRAU
N: E1720
O: Europa, Mitteleuropa, Deutschland, Rheinland, Koeln
R: Spott - Lied, Satire
M: 2/4
L: 1/8
K: Bb
 | FBB2 | Gcc2 | dBBB | cFF2 |
FBB2 | Gcc2 | dBcA | B2z2 |
cccB | AGF2 | cccB | AGF2 |
FBB2 | Fccc | dBcA | B2
f2 | f3e | d2f2 | f3e | d4 |
g2f2 | eed2 | c2B2 | c4 |
FBB2 | Gcc2 | dBBB | cFF2 |
FBB2 | Gcc2 | dBcA | B2z2 |
cccB | AGF2 | cccB | AGF2 |
FBB2 | Fccc | dBcA | B2z2

@@@ Tune index: 5149
